X: 15214
T: Gingerhogs
R: slip jig
M: 9/8
K: Dmajor
|:Add fdd e2 f|Add efd GdB|Add fdd e2 f|GBd Afd e3:|
|:adf- fef def|adf efd B3|adf fed BAF|GBd Afd e3:|

